public/new/svg18.svg

<svg fill="none" height="28" viewBox="0 0 28 28" width="28" xmlns="http://www.w3.org/2000/svg"><g fill="#77787e"><path d="m7.35446 21.3535 14.00004-14.00002-.707-.707-14.00004 14.00002z"/><path d="m22.5 7c.828 0 1.5-.672 1.5-1.5s-.672-1.5-1.5-1.5-1.5.672-1.5 1.5.672 1.5 1.5 1.5zm0 1c-1.381 0-2.5-1.119-2.5-2.5s1.119-2.5 2.5-2.5 2.5 1.119 2.5 2.5-1.119 2.5-2.5 2.5zm-17 16c.828 0 1.5-.672 1.5-1.5s-.672-1.5-1.5-1.5-1.5.672-1.5 1.5.672 1.5 1.5 1.5zm0 1c-1.381 0-2.5-1.119-2.5-2.5s1.119-2.5 2.5-2.5 2.5 1.119 2.5 2.5-1.119 2.5-2.5 2.5z"/></g></svg>

<svg width="28" height="28" viewBox="0 0 28 28" fill="none" xmlns="http://www.w3.org/2000/svg">
<path d="M7.35446 21.3535L21.3545 7.35348L20.6475 6.64648L6.64746 20.6465L7.35446 21.3535Z" fill="#77787E"/>
<path d="M22.5 7C23.328 7 24 6.328 24 5.5C24 4.672 23.328 4 22.5 4C21.672 4 21 4.672 21 5.5C21 6.328 21.672 7 22.5 7ZM22.5 8C21.119 8 20 6.881 20 5.5C20 4.119 21.119 3 22.5 3C23.881 3 25 4.119 25 5.5C25 6.881 23.881 8 22.5 8ZM5.5 24C6.328 24 7 23.328 7 22.5C7 21.672 6.328 21 5.5 21C4.672 21 4 21.672 4 22.5C4 23.328 4.672 24 5.5 24ZM5.5 25C4.119 25 3 23.881 3 22.5C3 21.119 4.119 20 5.5 20C6.881 20 8 21.119 8 22.5C8 23.881 6.881 25 5.5 25Z" fill="#77787E"/>
</svg>
